public/assets/images/header/02.svg

<svg width="15" height="15" viewBox="0 0 15 15" fill="none" xmlns="http://www.w3.org/2000/svg">
<g clip-path="url(#clip0_807_10389)">
<path d="M0 7.5C0 11.6293 3.37011 14.9997 7.4995 15H7.49988H7.50012C11.6297 14.9999 15 11.6294 15 7.5C15 3.37034 11.6294 0 7.5 0C3.37562 0 0 3.36677 0 7.5ZM0.878906 7.5C0.878906 6.18563 1.26393 4.95952 1.92703 3.92842L2.76158 4.13165C2.90815 4.1683 3.02695 4.26879 3.08745 4.40733C3.14789 4.54567 3.14057 4.70145 3.06738 4.83469C2.74945 5.41354 2.94059 6.1604 3.50247 6.53499L5.40129 7.80085L5.83781 8.6739C5.98649 8.97123 5.92843 9.32892 5.69338 9.56399L5.43144 9.82594C5.25981 9.99756 5.25981 10.2758 5.43144 10.4474L5.95579 10.9718C6.10143 11.1174 6.18161 11.311 6.18161 11.517C6.18161 12.4099 6.38505 13.2951 6.76945 14.0805C3.4611 13.7158 0.878906 10.904 0.878906 7.5ZM6.62397 8.28088L6.45325 7.93945H6.51735C6.95596 7.93945 7.35026 8.18314 7.54641 8.57543C7.8924 9.26739 8.58791 9.69727 9.36158 9.69727H9.69727V10.1367C9.69727 10.492 9.55802 10.8252 9.30513 11.0749C8.49398 11.8758 7.88739 12.6762 7.46918 13.5004C7.20463 12.888 7.06055 12.1932 7.06055 11.517C7.06055 11.0763 6.88893 10.662 6.5773 10.3504L6.36267 10.1357C6.82547 9.63296 6.93176 8.89644 6.62397 8.28088ZM8.16091 14.0882C8.53559 13.2829 9.11631 12.4965 9.92262 11.7003C10.3441 11.2842 10.5762 10.7289 10.5762 10.1367V9.25781C10.5762 9.01512 10.3794 8.81836 10.1367 8.81836H9.36155C8.92295 8.81836 8.52864 8.57467 8.3325 8.18238C7.98653 7.49042 7.291 7.06055 6.51735 7.06055H6.0138L5.88018 6.79327C5.64337 6.31969 5.85812 5.74345 6.36905 5.48139C6.78908 5.26597 7.06055 4.79464 7.06055 4.28065V3.98438C7.06055 3.74206 7.25769 3.54492 7.5 3.54492H8.03024C8.93408 3.54492 9.56818 2.65348 9.27917 1.80437L9.03018 1.05773C10.0157 1.29179 10.9165 1.74668 11.6774 2.36713L11.5433 2.76964C11.5218 2.83406 11.4851 2.89345 11.4371 2.94144L10.9623 3.41622C10.7133 3.66522 10.5762 3.9963 10.5762 4.34845V4.86328C10.5762 5.59022 11.1676 6.18164 11.8945 6.18164C12.1368 6.18164 12.334 6.37878 12.334 6.62109V7.29252C12.334 7.36037 12.3179 7.42834 12.2876 7.48904L12.1375 7.78934C11.9317 8.20102 11.9532 8.68052 12.1952 9.07201C12.4372 9.46354 12.8564 9.69697 13.3166 9.69697H13.7458C12.9079 12.0717 10.7521 13.8302 8.16091 14.0882ZM14.1211 7.5C14.1211 7.95132 14.0755 8.39218 13.9891 8.81836H13.3166C13.0955 8.81836 12.9815 8.67261 12.9428 8.60994C12.9041 8.54727 12.8247 8.38017 12.9236 8.18238L13.0737 7.88209C13.1648 7.69998 13.2129 7.4961 13.2129 7.29252V6.62109C13.2129 5.89415 12.6215 5.30273 11.8945 5.30273C11.6522 5.30273 11.4551 5.1056 11.4551 4.86328V4.34842C11.4551 4.23103 11.5008 4.12066 11.5838 4.0377L12.0586 3.56294C12.2025 3.419 12.3127 3.24082 12.3771 3.04761L12.3822 3.03234C13.4615 4.21081 14.1211 5.77978 14.1211 7.5ZM7.5 0.878906C7.68583 0.878906 7.86978 0.886992 8.05181 0.90208L8.44626 2.08494C8.54344 2.37041 8.33168 2.66602 8.03024 2.66602H7.5C6.77306 2.66602 6.18164 3.25743 6.18164 3.98435V4.28062C6.18164 4.46555 6.09577 4.6338 5.96795 4.69937C5.28223 5.05104 4.89196 5.72279 4.90327 6.41256L3.99003 5.80374C3.80449 5.68002 3.73761 5.44022 3.8378 5.25779C4.0432 4.88379 4.06327 4.4456 3.89291 4.05554C3.72246 3.66527 3.3878 3.38224 2.97217 3.27835L2.50063 3.16351C3.71552 1.76479 5.50623 0.878906 7.5 0.878906Z" fill="white"/>
</g>
<defs>
<clipPath id="clip0_807_10389">
<rect width="15" height="15" fill="white"/>
</clipPath>
</defs>
</svg>

<svg xmlns="http://www.w3.org/2000/svg" width="15" height="15" fill="none" viewBox="0 0 15 15"><g clip-path="url(#a)"><path fill="#fff" d="M0 7.5C0 11.63 3.37 15 7.5 15S15 11.63 15 7.5 11.63 0 7.5 0C3.376 0 0 3.367 0 7.5m.879 0c0-1.314.385-2.54 1.048-3.572l.835.204a.48.48 0 0 1 .306.703c-.319.579-.127 1.325.434 1.7l1.9 1.266.436.873a.77.77 0 0 1-.145.89l-.262.262a.44.44 0 0 0 0 .621l.525.525a.77.77 0 0 1 .226.545c0 .893.203 1.778.587 2.564A6.63 6.63 0 0 1 .88 7.5m5.745.78-.17-.34h.063c.439 0 .833.243 1.03.635a2.02 2.02 0 0 0 1.815 1.122h.335v.44c0 .355-.139.688-.392.938-.811.8-1.418 1.601-1.836 2.425a5.1 5.1 0 0 1-.408-1.983c0-.44-.172-.855-.484-1.167l-.214-.214a1.65 1.65 0 0 0 .261-1.855m1.537 5.808c.375-.805.955-1.591 1.762-2.388.421-.416.653-.971.653-1.563v-.88a.44.44 0 0 0-.44-.439h-.774c-.439 0-.833-.243-1.03-.636a2.02 2.02 0 0 0-1.815-1.121h-.503l-.134-.268c-.237-.473-.022-1.05.489-1.312.42-.215.692-.686.692-1.2v-.297a.44.44 0 0 1 .439-.44h.53a1.32 1.32 0 0 0 1.25-1.74l-.25-.746a6.6 6.6 0 0 1 2.647 1.31l-.134.402a.44.44 0 0 1-.106.171l-.475.475a1.3 1.3 0 0 0-.386.932v.515a1.32 1.32 0 0 0 1.319 1.319.44.44 0 0 1 .439.44v.67a.44.44 0 0 1-.046.197l-.15.3a1.31 1.31 0 0 0 .057 1.283 1.31 1.31 0 0 0 1.122.625h.429a6.64 6.64 0 0 1-5.585 4.391M14.12 7.5q-.001.678-.132 1.318h-.672a.43.43 0 0 1-.374-.208.43.43 0 0 1-.02-.428l.15-.3c.092-.182.14-.386.14-.59v-.67a1.32 1.32 0 0 0-1.318-1.32.44.44 0 0 1-.44-.439v-.515c0-.117.046-.227.129-.31l.475-.475a1.3 1.3 0 0 0 .318-.515l.005-.016a6.6 6.6 0 0 1 1.74 4.468M7.5.879q.279 0 .552.023l.394 1.183a.44.44 0 0 1-.416.581H7.5a1.32 1.32 0 0 0-1.318 1.318v.297c0 .185-.086.353-.214.418-.686.352-1.076 1.024-1.065 1.714l-.913-.61c-.186-.123-.252-.363-.152-.545.205-.374.225-.812.055-1.202a1.35 1.35 0 0 0-.92-.778L2.5 3.164a6.6 6.6 0 0 1 5-2.285"/></g><defs><clipPath id="a"><path fill="#fff" d="M0 0h15v15H0z"/></clipPath></defs></svg>
